Adwaita++/apps/scalable/sound-juicer.svg

<svg enable-background="new" height="128" viewBox="0 0 128 128" width="128" xmlns="http://www.w3.org/2000/svg">
  <path d="m64.999982 11.99999c-28.807998 0-52.000004 23.192-52.000004 52.00001 0 28.808 23.192006 52 52.000004 52 28.808 0 51.999998-23.192 51.999998-52 0-28.80801-23.191998-52.00001-51.999998-52.00001zm0 29.71429a22.285716 22.285716 0 0 1 22.285713 22.28572 22.285716 22.285716 0 0 1 -22.285713 22.28572 22.285716 22.285716 0 0 1 -22.285714-22.28572 22.285716 22.285716 0 0 1 22.285714-22.28572z" opacity=".2"/>
  <path d="m65.000004 35.142858a27.857144 27.857142 0 0 0 -27.857146 27.857142 27.857144 27.857142 0 0 0 27.857146 27.857144 27.857144 27.857142 0 0 0 27.857142-27.857144 27.857144 27.857142 0 0 0 -27.857142-27.857142zm0 16.714285c6.154201 0 11.142854 4.988658 11.142854 11.142857 0 6.1542-4.988653 11.142858-11.142854 11.142858s-11.142859-4.988658-11.142859-11.142858c0-6.154199 4.988658-11.142857 11.142859-11.142857z" fill="#848484"/>
  <path d="m65.000004 11c-28.807999 0-52.000004 23.192-52.000004 52 0 28.808001 23.192005 52 52.000004 52s51.999996-23.191999 51.999996-52c0-28.808-23.191997-52-51.999996-52zm0 29.714286a22.285716 22.285714 0 0 1 22.285713 22.285714 22.285716 22.285714 0 0 1 -22.285713 22.285715 22.285716 22.285714 0 0 1 -22.285715-22.285715 22.285716 22.285714 0 0 1 22.285715-22.285714z" fill="#e4e4e4"/>
  <path d="m65.000004 11c-28.807999 0-52.000004 23.192-52.000004 52 0 .210891.02099.41606.03264.623885.652864-28.231835 23.572993-50.766743 51.967358-50.766743 28.391947 0 51.314382 22.531025 51.970982 50.759488.0117-.205396.029-.408226.029-.61663 0-28.808-23.191999-52-51.999998-52zm-22.191409 53.849889a22.285716 22.285714 0 0 0 -.09435 1.864398 22.285716 22.285714 0 0 0 .04717.928571 22.285716 22.285714 0 0 1 .04717-.935825 22.285716 22.285714 0 0 0 22.19141 20.435825 22.285716 22.285714 0 0 0 22.191405-20.421318 22.285716 22.285714 0 0 1 .05442 1.099052 22.285716 22.285714 0 0 0 .03989-1.106305 22.285716 22.285714 0 0 0 -.0943-1.849889 22.285716 22.285714 0 0 1 -22.191417 20.421317 22.285716 22.285714 0 0 1 -22.191411-20.435826z" fill="#fff" opacity=".2"/>
  <path d="m96.479004 66.434908c-5.730904 8.270484-11.166975 16.75614-16.710583 25.155915-1.498943 2.585421-2.886597 4.849829-3.84006 7.289741-.602516 1.791416-.928361 3.684106-.928361 5.646406 0 11.02524 10.196811 19.97303 22.787154 19.97303 12.590386 0 22.787176-8.94779 22.787176-19.97303-.0487-2.41397-.55142-4.49109-1.13936-6.194182-1.17955-3.161623-3.90111-6.307276-5.5702-8.890957-5.6462-7.774504-11.86994-15.138611-17.385766-23.006923z" opacity=".2"/>
  <path d="m96.479004 64.499998c-5.730904 8.270485-11.166975 16.756141-16.710583 25.155915-1.498943 2.585421-2.886597 4.849829-3.84006 7.289739-.602516 1.791428-.928361 3.684108-.928361 5.646418 0 11.02523 10.196811 19.97301 22.787154 19.97301 12.590386 0 22.787176-8.94778 22.787176-19.97301-.0487-2.41398-.55142-4.491105-1.13936-6.194186-1.17955-3.161629-3.90111-6.307282-5.5702-8.890962-5.6462-7.774505-11.86994-15.138611-17.385766-23.006924z" fill="#ff7800"/>
</svg>

<?xml version="1.0" encoding="UTF-8" standalone="no"?>
<svg
   xmlns:dc="http://purl.org/dc/elements/1.1/"
   xmlns:cc="http://creativecommons.org/ns#"
   xmlns:rdf="http://www.w3.org/1999/02/22-rdf-syntax-ns#"
   xmlns:svg="http://www.w3.org/2000/svg"
   xmlns="http://www.w3.org/2000/svg"
   xmlns:xlink="http://www.w3.org/1999/xlink"
   xmlns:sodipodi="http://sodipodi.sourceforge.net/DTD/sodipodi-0.dtd"
   xmlns:inkscape="http://www.inkscape.org/namespaces/inkscape"
   style="enable-background:new"
   width="128"
   height="128"
   version="1.0"
   viewBox="0 0 128 128"
   id="svg21"
   sodipodi:docname="sound-juicer.svg"
   inkscape:version="0.92.3 (2405546, 2018-03-11)">
  <metadata
     id="metadata25">
    <rdf:RDF>
      <cc:Work
         rdf:about="">
        <dc:format>image/svg+xml</dc:format>
        <dc:type
           rdf:resource="http://purl.org/dc/dcmitype/StillImage" />
        <dc:title>
  Adwaita Icon Template
 </dc:title>
      </cc:Work>
    </rdf:RDF>
  </metadata>
  <sodipodi:namedview
     pagecolor="#ffffff"
     bordercolor="#666666"
     borderopacity="1"
     objecttolerance="10"
     gridtolerance="10"
     guidetolerance="10"
     inkscape:pageopacity="0"
     inkscape:pageshadow="2"
     inkscape:window-width="1920"
     inkscape:window-height="1009"
     id="namedview23"
     showgrid="false"
     inkscape:zoom="1.84375"
     inkscape:cx="64"
     inkscape:cy="64"
     inkscape:window-x="0"
     inkscape:window-y="34"
     inkscape:window-maximized="1"
     inkscape:current-layer="svg21" />
  <title
     id="title4162">
  Adwaita Icon Template
 </title>
  <defs
     id="defs7">
    <linearGradient
       id="linearGradient950">
      <stop
         style="stop-color:#9a9996"
         id="stop946"
         offset="0" />
      <stop
         style="stop-color:#77767b"
         id="stop948"
         offset="1" />
    </linearGradient>
    <linearGradient
       id="linearGradient1001"
       x1="1660.857"
       x2="1662.99"
       y1="806.297"
       y2="812.882"
       gradientTransform="matrix(1.8293937,-0.81599442,0.81599442,1.8293937,-3645.9624,100.02949)"
       gradientUnits="userSpaceOnUse"
       xlink:href="#linearGradient950" />
  </defs>
  <path
     style="opacity:0.2"
     d="m 64.999982,11.99999 c -28.807998,0 -52.000004,23.192 -52.000004,52.00001 0,28.808 23.192006,52 52.000004,52 28.808,0 51.999998,-23.192 51.999998,-52 0,-28.80801 -23.191998,-52.00001 -51.999998,-52.00001 z m 0,29.71429 A 22.285716,22.285716 0 0 1 87.285695,64 22.285716,22.285716 0 0 1 64.999982,86.28572 22.285716,22.285716 0 0 1 42.714268,64 22.285716,22.285716 0 0 1 64.999982,41.71428 Z"
     id="path9" />
  <path
     style="fill:#848484"
     d="M 65.000004,35.142858 A 27.857144,27.857142 0 0 0 37.142858,63 27.857144,27.857142 0 0 0 65.000004,90.857144 27.857144,27.857142 0 0 0 92.857146,63 27.857144,27.857142 0 0 0 65.000004,35.142858 Z m 0,16.714285 c 6.154201,0 11.142854,4.988658 11.142854,11.142857 0,6.1542 -4.988653,11.142858 -11.142854,11.142858 -6.154201,0 -11.142859,-4.988658 -11.142859,-11.142858 0,-6.154199 4.988658,-11.142857 11.142859,-11.142857 z"
     id="path11" />
  <path
     style="fill:#e4e4e4"
     d="M 65.000004,11 C 36.192005,11 13,34.192 13,63 13,91.808001 36.192005,115 65.000004,115 93.808003,115 117,91.808001 117,63 117,34.192 93.808003,11 65.000004,11 Z m 0,29.714286 A 22.285716,22.285714 0 0 1 87.285717,63 22.285716,22.285714 0 0 1 65.000004,85.285715 22.285716,22.285714 0 0 1 42.714289,63 22.285716,22.285714 0 0 1 65.000004,40.714286 Z"
     id="path13" />
  <path
     style="opacity:0.2;fill:#ffffff"
     d="M 65.000004,11 C 36.192005,11 13,34.192 13,63 c 0,0.210891 0.02099,0.41606 0.03264,0.623885 0.652864,-28.231835 23.572993,-50.766743 51.967358,-50.766743 28.391947,0 51.314382,22.531025 51.970982,50.759488 0.0117,-0.205396 0.029,-0.408226 0.029,-0.61663 0,-28.808 -23.191999,-52 -51.999998,-52 z M 42.808595,64.849889 a 22.285716,22.285714 0 0 0 -0.09435,1.864398 22.285716,22.285714 0 0 0 0.04717,0.928571 22.285716,22.285714 0 0 1 0.04717,-0.935825 22.285716,22.285714 0 0 0 22.19141,20.435825 A 22.285716,22.285714 0 0 0 87.1914,66.72154 22.285716,22.285714 0 0 1 87.24582,67.820592 22.285716,22.285714 0 0 0 87.28571,66.714287 22.285716,22.285714 0 0 0 87.19141,64.864398 22.285716,22.285714 0 0 1 64.999993,85.285715 22.285716,22.285714 0 0 1 42.808582,64.849889 Z"
     id="path15" />
  <path
     d="M 96.479004,66.434908 C 90.7481,74.705392 85.312029,83.191048 79.768421,91.590823 78.269478,94.176244 76.881824,96.440652 75.928361,98.880564 75.325845,100.67198 75,102.56467 75,104.52697 75,115.55221 85.196811,124.5 97.787154,124.5 c 12.590386,0 22.787176,-8.94779 22.787176,-19.97303 -0.0487,-2.41397 -0.55142,-4.49109 -1.13936,-6.194182 -1.17955,-3.161623 -3.90111,-6.307276 -5.5702,-8.890957 -5.6462,-7.774504 -11.86994,-15.138611 -17.385766,-23.006923 z"
     style="opacity:0.2;stroke-width:1.00000024"
     id="path17"
     inkscape:connector-curvature="0" />
  <path
     style="fill:#ff7800;fill-opacity:1;stroke-width:1.00000024"
     d="M 96.479004,64.499998 C 90.7481,72.770483 85.312029,81.256139 79.768421,89.655913 78.269478,92.241334 76.881824,94.505742 75.928361,96.945652 75.325845,98.73708 75,100.62976 75,102.59207 c 0,11.02523 10.196811,19.97301 22.787154,19.97301 12.590386,0 22.787176,-8.94778 22.787176,-19.97301 -0.0487,-2.41398 -0.55142,-4.491105 -1.13936,-6.194186 -1.17955,-3.161629 -3.90111,-6.307282 -5.5702,-8.890962 -5.6462,-7.774505 -11.86994,-15.138611 -17.385766,-23.006924 z"
     id="path19"
     inkscape:connector-curvature="0" />
</svg>
